X:1
T:Title
%%score { ( 1 4 ) | ( 2 3 ) }
L:1/8
M:4/4
K:Eb
V:1 treble nm="Grand Piano"
V:4 treble 
V:2 bass 
V:3 bass 
V:1
 z4 z2[Q:1/4=100] GA | B2 G2 [_Ge]2 .[Gd]2 | .[EGB]2 =E-[EG] F2 z G | A2 c2 B2 E2 | %4
[M:3/4] [DF]3 E E2 |] %5
V:2
 z4 z2 [E,E]2 | [E,G,E]2 [E,B,]2 [E,=A,]2 z[K:treble] c | z B, z B, [F,A,]2 A,B, | %3
 [F,CF]2 [F,A,D]2 [G,B,E]2 [C,=A,]2 |[M:3/4] [B,,A,]3 [E,G,] [E,G,]2 |] %5
V:3
 z4 z2 z F, | z4 z2 [E,C]2[K:treble] | E,2 C,2 z2 F,2 | x8 |[M:3/4] x6 |] %5
V:4
 x8 | x8 | z2 .[CA]2 z2 F2 | x8 |[M:3/4] x6 |] %5

